icons/slack-fill.svg

<svg xmlns="http://www.w3.org/2000/svg" width="24" height="24" fill="none"><g clip-path="url(#a)"><g><path fill="#121212" d="M6.52702 14.514C6.52517 15.035 6.31731 15.5342 5.9488 15.9025C5.58028 16.2708 5.08104 16.4784 4.56002 16.48C4.03882 16.4784 3.53943 16.2707 3.17089 15.9021C2.80235 15.5336 2.5946 15.0342 2.59302 14.513C2.59302 13.43 3.47702 12.545 4.56002 12.545H6.52802V14.513L6.52702 14.514ZM7.51902 14.514C7.51902 13.431 8.40302 12.546 9.48602 12.546C10.569 12.546 11.454 13.431 11.454 14.514V19.441C11.4524 19.9624 11.2446 20.4619 10.8758 20.8305C10.507 21.1991 10.0074 21.4067 9.48602 21.408C8.96482 21.4064 8.46543 21.1987 8.09689 20.8301C7.72835 20.4616 7.5206 19.9622 7.51902 19.441V14.514ZM9.48602 6.52702C8.965 6.52517 8.46586 6.31731 8.09753 5.9488C7.72921 5.58028 7.5216 5.08104 7.52002 4.56002C7.52002 3.47702 8.40402 2.59302 9.48702 2.59302C10.57 2.59302 11.455 3.47702 11.455 4.56002V6.52802H9.48602V6.52702ZM9.48602 7.51902C10.569 7.51902 11.454 8.40302 11.454 9.48602C11.4527 10.0076 11.2449 10.5074 10.8761 10.8761C10.5074 11.2449 10.0076 11.4527 9.48602 11.454H4.56002C4.03865 11.4524 3.53911 11.2446 3.17054 10.8758C2.80197 10.507 2.59434 10.0074 2.59302 9.48602C2.59302 8.40302 3.47702 7.51902 4.56002 7.51902H9.48702H9.48602ZM17.473 9.48602C17.473 8.40302 18.358 7.51902 19.441 7.51902C20.524 7.51902 21.408 8.40302 21.408 9.48602C21.4067 10.0074 21.1991 10.507 20.8305 10.8758C20.4619 11.2446 19.9624 11.4524 19.441 11.454H17.473V9.48602ZM16.481 9.48602C16.4797 10.0074 16.2721 10.507 15.9035 10.8758C15.5349 11.2446 15.0354 11.4524 14.514 11.454C13.9925 11.4527 13.4927 11.2449 13.1239 10.8761C12.7551 10.5074 12.5473 10.0076 12.546 9.48602V4.56002C12.546 3.47702 13.431 2.59302 14.514 2.59302C15.597 2.59302 16.481 3.47702 16.481 4.56002V9.48702V9.48602ZM14.514 17.473C15.597 17.473 16.481 18.358 16.481 19.441C16.4794 19.9622 16.2717 20.4616 15.9031 20.8301C15.5346 21.1987 15.0352 21.4064 14.514 21.408C13.9926 21.4067 13.493 21.1991 13.1242 20.8305C12.7555 20.4619 12.5476 19.9624 12.546 19.441V17.473H14.514ZM14.514 16.481C13.9926 16.4797 13.493 16.2721 13.1242 15.9035C12.7555 15.5349 12.5476 15.0354 12.546 14.514C12.546 13.431 13.431 12.546 14.514 12.546H19.441C20.524 12.546 21.408 13.431 21.408 14.514C21.4064 15.0352 21.1987 15.5346 20.8301 15.9031C20.4616 16.2717 19.9622 16.4794 19.441 16.481H14.514Z"/></g></g><defs><clipPath id="a"><rect width="24" height="24" fill="white"/></clipPath></defs></svg>

<svg width="24" height="24" fill="none" xmlns="http://www.w3.org/2000/svg"><g clip-path="url(#a)"><path d="M6.527 14.514A1.973 1.973 0 0 1 4.56 16.48a1.973 1.973 0 0 1-1.967-1.967c0-1.083.884-1.968 1.967-1.968h1.968v1.968l-.001.001Zm.992 0c0-1.083.884-1.968 1.967-1.968 1.083 0 1.968.885 1.968 1.968v4.927a1.973 1.973 0 0 1-1.968 1.967 1.973 1.973 0 0 1-1.967-1.967v-4.927Zm1.967-7.987A1.973 1.973 0 0 1 7.52 4.56c0-1.083.884-1.967 1.967-1.967 1.083 0 1.968.884 1.968 1.967v1.968H9.486v-.001Zm0 .992c1.083 0 1.968.884 1.968 1.967a1.973 1.973 0 0 1-1.968 1.968H4.56a1.973 1.973 0 0 1-1.967-1.968c0-1.083.884-1.967 1.967-1.967h4.927-.001Zm7.987 1.967c0-1.083.885-1.967 1.968-1.967s1.967.884 1.967 1.967a1.973 1.973 0 0 1-1.967 1.968h-1.968V9.486Zm-.992 0a1.973 1.973 0 0 1-1.967 1.968 1.973 1.973 0 0 1-1.968-1.968V4.56c0-1.083.885-1.967 1.968-1.967s1.967.884 1.967 1.967v4.927-.001Zm-1.967 7.987c1.083 0 1.967.885 1.967 1.968a1.973 1.973 0 0 1-1.967 1.967 1.973 1.973 0 0 1-1.968-1.967v-1.968h1.968Zm0-.992a1.973 1.973 0 0 1-1.968-1.967c0-1.083.885-1.968 1.968-1.968h4.927c1.083 0 1.967.885 1.967 1.968a1.973 1.973 0 0 1-1.967 1.967h-4.927Z" /></g><defs><clipPath id="a"><path fill="#fff" d="M0 0h24v24H0z"/></clipPath></defs></svg>
